!!!OTL: 464. Der Juengling am Bache. / b. Aeltere Volksweise.
!!!COM: Volksweise
!!!ARE: Europa, Mitteleuropa, Deutschland
!!!SCT: B0464A
!!!YEM: Copyright 1995, estate of Helmut Schaffrath.
**kern
*ICvox
*Ivox
*clefG2
*M4/4
*met(c)
*k[f#]
*G:
!LO:TX:a:t=Langſam.
{8b
8a
=1
4.g
8g
4.g
8f#
=2
8f#L
8eJ
4e
4r}
{8e
8e
=3
4.d
8d
4.cc
8f#
=4
2g
4r}
{8b
8a
=5
4.g
8g
4.g
8f#
=6
8f#L
8eJ
4e
4r}
{8e
8e
=7
4.d
8d
4.cc
8f#
=8
2g
4r}
{8f#
8g
=9
4.a
8a
(4dd
8cc)
8a
=10
8ccL
8bJ
4b
4r}
{8a
8b
=11
(4dd
8cc)
8a
(4cc
8b)
8g
=12
2a
4r}
{8b
8a
=13
4.g
8g
4.g
8f#
=14
8f#L
8eJ
4e
4r}
{8e
8e
=15
4.d
8d
4.cc
8f#
=16
2g
4r}
==
!!!AGN: Liebes - Lied, Leid, Klage, Sehnsucht
!!!GTL: Liebeslieder - Liebesleid
!!!ONB: ESAC (Essen Associative Code) Database: BOEHME
!!!AMT: simple quadruple
!!!AIN: vox
!!!EED: Helmut Schaffrath
!!!EEV: 1.0
!!@@COMMENT:"Mel. in Erk's Germania Nr. 224, mit einigen Noten anders. Auch in Härtels Liederlerikon.
!!Die Weiſe ſoll von Chr. Schulʒ igeb. 1773, 4 1827 in Leipʒig als akadem. Muſikdir. ) komponirt ſein."
!!@@END:
!!!URL-scan: https://archive.org/details/BoehmeVtLieder1895/page/n373/mode/2up
!!!ENC: Anna Maria Matuszewska
!!!EEV: 2024/09/07
*-
